svg/color/enso.svg

<svg width="50" height="50" viewBox="0 0 50 50" fill="none" xmlns="http://www.w3.org/2000/svg">
<circle cx="25" cy="25" r="25" fill="url(#paint0_radial_2568_293)"/>
<path d="M25.3397 41C32.9898 41 38.7217 36.0884 40.7757 30.2779C40.7819 30.2605 40.7568 30.2508 40.7488 30.2673C37.9853 36.0571 32.4572 40.0688 25.34 40.0688C17.7826 40.0688 10.7017 34.4139 10.7017 25.7652C10.7017 18.3138 16.6251 12.1267 23.5019 12.1267C29.2891 12.1267 33.3061 15.5862 33.3061 18.0478C33.3061 19.1787 32.5572 19.9772 31.3999 19.9772C28.7445 19.9772 27.7233 15.3201 22.6849 15.3201C17.5784 15.3201 13.2212 20.1102 13.2212 25.7652C13.2212 33.0835 19.1446 37.8732 25.0679 37.8732C27.3833 37.8732 28.6681 37.2783 29.0391 37.0753C29.0545 37.0668 29.0445 37.044 29.0278 37.0492C28.6588 37.1627 27.4996 37.4741 25.8851 37.4741C18.6 37.4741 15.6723 31.9523 15.6723 28.3597C15.6723 25.6321 17.4425 24.5012 18.8722 24.5012C22.6849 24.5012 22.1404 32.4847 31.5362 32.4847C36.4384 32.4847 41 29.2247 41 22.7715C41 15.4534 33.9192 9 25.3406 9C16.3534 9 9 16.1186 9 24.9669C8.99923 33.8815 16.6249 41 25.3397 41Z" fill="white"/>
<defs>
<radialGradient id="paint0_radial_2568_293" cx="0" cy="0" r="1" gradientUnits="userSpaceOnUse" gradientTransform="translate(36.5 12.5) rotate(132.614) scale(16.9853 22.1457)">
<stop stop-color="#574645"/>
<stop offset="1" stop-color="#010202"/>
</radialGradient>
</defs>
</svg>

<svg xmlns="http://www.w3.org/2000/svg" width="50" height="50" fill="none" viewBox="0 0 50 50"><circle cx="25" cy="25" r="25" fill="url(#enso_svg-a)"/><path fill="#fff" d="M25.34 41c7.65 0 13.382-4.912 15.436-10.722.006-.017-.02-.027-.027-.01-2.764 5.79-8.292 9.8-15.409 9.8-7.557 0-14.638-5.654-14.638-14.303 0-7.451 5.923-13.638 12.8-13.638 5.787 0 9.804 3.46 9.804 5.92 0 1.132-.749 1.93-1.906 1.93-2.655 0-3.677-4.657-8.715-4.657-5.107 0-9.464 4.79-9.464 10.445a11.964 11.964 0 0 0 11.847 12.108c2.315 0 3.6-.595 3.971-.798.015-.008.005-.031-.011-.026-.37.114-1.528.425-3.143.425-7.285 0-10.213-5.522-10.213-9.114 0-2.728 1.77-3.859 3.2-3.859 3.813 0 3.268 7.984 12.664 7.984 4.902 0 9.464-3.26 9.464-9.713C41 15.453 33.92 9 25.34 9 16.354 9 9 16.119 9 24.967 9 33.882 16.625 41 25.34 41"/><defs><radialGradient id="enso_svg-a" cx="0" cy="0" r="1" gradientTransform="rotate(132.614 15.507 14.259)scale(16.9853 22.1457)" gradientUnits="userSpaceOnUse"><stop stop-color="#574645"/><stop offset="1" stop-color="#010202"/></radialGradient></defs></svg>
